X:1
T:Title
%%score { 1 | ( 2 3 ) }
L:1/8
M:4/4
K:Bb
V:1 treble nm="Grand Piano"
V:2 bass 
V:3 bass 
V:1
 z4 z2[Q:1/4=110] [DF]2 | [DF]3 [DF] [_D=E][=DF][_EG][DF] | [DF]2 [DB]6 | c4 B2 A2 | [DB]6 z2 | %5
 G4 F2 F2 | [DF]6 [DF]2 | G3 G G[GB][FA][EG] | [EG]2 [DF]4 [DB]2 | c3 c =Bcdc | [Ec]2 [DB]6 | %11
 [CA]4 [=EG]2 [Ec]2 | [Fc]6 z2 | [Ge]4 d2 c2 | [DB]6 z2 | [Fd]4 [DB]2 [DF]2 | G6 z2 | A4 B2 c2 | %18
 [DF]6 z2 | [FB]4 [_Ad]2 [Af]2 | [Ge]6 [Gc]2 | B2 AB d3 c |[M:3/4] [DB]6 |] %23
V:2
 z4 z2 [B,,B,]2 | [B,,B,]3 [B,,B,] [B,,B,][B,,B,][B,,B,][B,,B,] | [B,,B,]2 [B,,F,]6 | %3
 [F,A,E]4 [F,B,D]2 [F,CE]2 | [B,,B,]6 z2 | [E,B,E]4 [F,B,D]2 [F,A,E]2 | [B,,B,]6 [B,,B,]2 | %7
 [E,B,E]3 [E,B,E] [E,B,E][E,B,][E,B,][E,B,] | [B,,B,]2 [B,,B,]4 [B,,B,]2 | %9
 [F,A,E]3 [F,A,E] [F,_A,D][F,=A,E][F,B,F][F,A,E] | [B,,B,]2 [B,,F,]6 | [C,F,]4 [C,B,]2 [C,B,]2 | %12
 [F,A,]6 z2 | [F,B,]4 [F,A,F]2 [F,E]2 | [B,,F,]6 z2 | [B,,B,]4 [B,,F,]2 [B,,B,]2 | [E,B,E]6 z2 | %17
 [CE]4 [DF]2 [F,,A,E]2 | [B,,B,]6 z2 | [B,D]4 [F,B,]2 [D,B,]2 | [E,B,]6 [E,E]2 | %21
 [F,DF]2 CD [F,B,F]3 [F,A,E] |[M:3/4] [B,,B,]6 |] %23
V:3
 x8 | x8 | x8 | x8 | x8 | x8 | x8 | x8 | x8 | x8 | x8 | x8 | x8 | x8 | x8 | x8 | x8 | F,6 z2 | x8 | %19
 x8 | x8 | z2 [F,F]2 z4 |[M:3/4] x6 |] %23

